icons/circle/48/plume-creator.svg

<svg xmlns="http://www.w3.org/2000/svg" viewBox="0 0 48 48">
 <defs>
  <linearGradient id="linearGradient4208" x1="1" x2="47" gradientUnits="userSpaceOnUse" gradientTransform="matrix(0,-1,1,0,0,48)">
   <stop style="stop-color:#07647e;stop-opacity:1"/>
   <stop offset="1" style="stop-color:#087290;stop-opacity:1"/>
  </linearGradient>
 </defs>
 <g>
  <path d="m 36.31 5 c 5.859 4.062 9.688 10.831 9.688 18.5 c 0 12.426 -10.07 22.5 -22.5 22.5 c -7.669 0 -14.438 -3.828 -18.5 -9.688 c 1.037 1.822 2.306 3.499 3.781 4.969 c 4.085 3.712 9.514 5.969 15.469 5.969 c 12.703 0 23 -10.298 23 -23 c 0 -5.954 -2.256 -11.384 -5.969 -15.469 c -1.469 -1.475 -3.147 -2.744 -4.969 -3.781 z m 4.969 3.781 c 3.854 4.113 6.219 9.637 6.219 15.719 c 0 12.703 -10.297 23 -23 23 c -6.081 0 -11.606 -2.364 -15.719 -6.219 c 4.16 4.144 9.883 6.719 16.219 6.719 c 12.703 0 23 -10.298 23 -23 c 0 -6.335 -2.575 -12.06 -6.719 -16.219 z" style="opacity:0.05"/>
  <path d="m 41.28 8.781 c 3.712 4.085 5.969 9.514 5.969 15.469 c 0 12.703 -10.297 23 -23 23 c -5.954 0 -11.384 -2.256 -15.469 -5.969 c 4.113 3.854 9.637 6.219 15.719 6.219 c 12.703 0 23 -10.298 23 -23 c 0 -6.081 -2.364 -11.606 -6.219 -15.719 z" style="opacity:0.1"/>
  <path d="m 31.25 2.375 c 8.615 3.154 14.75 11.417 14.75 21.13 c 0 12.426 -10.07 22.5 -22.5 22.5 c -9.708 0 -17.971 -6.135 -21.12 -14.75 a 23 23 0 0 0 44.875 -7 a 23 23 0 0 0 -16 -21.875 z" style="opacity:0.2"/>
 </g>
 <path d="M 1,24 C 1,11.297 11.297,1 24,1 36.703,1 47,11.297 47,24 47,36.703 36.703,47 24,47 11.297,47 1,36.703 1,24 Z" style="fill:url(#linearGradient4208);fill-opacity:1"/>
 <path d="M 36,12 C 29.584,12 21.226,21.162 16.782,30.57 15.498,33.288 14.412,36.227 14,38 l 0.5,-0.021 c 1.864,-5.376 4.01,-5.811 5.03,-5.98 3.646,-0.606 6.44,-1.779 9.134,-4.998 -3.667,0 -5.967,-0.614 -5.967,-1 l 6.602,0 c 0.917,-0.957 1.856,-2.055 2.567,-3 -3.203,0 -5.87,-0.406 -5.87,-1 l 6.6,0 c 0.663,-0.983 1.218,-2.039 1.676,-3 -2.859,0 -4.776,-0.646 -4.776,-1 l 5.254,0 c 0.866,-2.134 1.254,-4.172 1.246,-6 z" style="fill:#000;opacity:0.1;fill-opacity:1;stroke:none"/>
 <g>
  <path d="m 40.03 7.531 c 3.712 4.084 5.969 9.514 5.969 15.469 0 12.703 -10.297 23 -23 23 c -5.954 0 -11.384 -2.256 -15.469 -5.969 4.178 4.291 10.01 6.969 16.469 6.969 c 12.703 0 23 -10.298 23 -23 0 -6.462 -2.677 -12.291 -6.969 -16.469 z" style="opacity:0.1"/>
 </g>
 <path d="M 35,11 C 28.584,11 20.226,20.162 15.782,29.57 14.498,32.288 13.412,35.227 13,37 l 0.5,-0.021 c 1.864,-5.376 4.01,-5.811 5.03,-5.98 3.646,-0.606 6.44,-1.779 9.134,-4.998 -3.667,0 -5.967,-0.614 -5.967,-1 l 6.602,0 c 0.917,-0.957 1.856,-2.055 2.567,-3 -3.203,0 -5.87,-0.406 -5.87,-1 l 6.6,0 c 0.663,-0.983 1.218,-2.039 1.676,-3 -2.859,0 -4.776,-0.646 -4.776,-1 l 5.254,0 c 0.866,-2.134 1.254,-4.172 1.246,-6 z" style="fill:#ecb234;opacity:1;fill-opacity:1;stroke:none"/>
</svg>

<svg xmlns="http://www.w3.org/2000/svg" viewBox="0 0 48 48">
  <defs>
    <linearGradient id="a" x1="1" x2="47" gradientUnits="userSpaceOnUse" gradientTransform="rotate(-90 24 24)">
      <stop stop-color="#07647e"/>
      <stop offset="1" stop-color="#087290"/>
    </linearGradient>
  </defs>
  <path d="M36.31 5c5.859 4.062 9.688 10.831 9.688 18.5 0 12.426-10.07 22.5-22.5 22.5-7.669 0-14.438-3.828-18.5-9.688a23.24 23.24 0 0 0 3.781 4.969 22.923 22.923 0 0 0 15.469 5.969c12.703 0 23-10.298 23-23a22.92 22.92 0 0 0-5.969-15.469A23.216 23.216 0 0 0 36.31 5zm4.969 3.781A22.911 22.911 0 0 1 47.498 24.5c0 12.703-10.297 23-23 23a22.909 22.909 0 0 1-15.719-6.219C12.939 45.425 18.662 48 24.998 48c12.703 0 23-10.298 23-23 0-6.335-2.575-12.06-6.719-16.219z" opacity=".05"/>
  <path d="M41.28 8.781a22.923 22.923 0 0 1 5.969 15.469c0 12.703-10.297 23-23 23A22.92 22.92 0 0 1 8.78 41.281 22.911 22.911 0 0 0 24.499 47.5c12.703 0 23-10.298 23-23A22.909 22.909 0 0 0 41.28 8.781z" opacity=".1"/>
  <path d="M31.25 2.375C39.865 5.529 46 13.792 46 23.505c0 12.426-10.07 22.5-22.5 22.5-9.708 0-17.971-6.135-21.12-14.75a23 23 0 0 0 44.875-7 23 23 0 0 0-16-21.875z" opacity=".2"/>
  <path d="M1 24C1 11.297 11.297 1 24 1s23 10.297 23 23-10.297 23-23 23S1 36.703 1 24z" fill="url(#a)"/>
  <path d="M36 12c-6.416 0-14.774 9.162-19.218 18.57-1.284 2.718-2.37 5.657-2.782 7.43l.5-.021c1.864-5.376 4.01-5.811 5.03-5.98 3.646-.606 6.44-1.779 9.134-4.998-3.667 0-5.967-.614-5.967-1h6.602a34.944 34.944 0 0 0 2.567-3c-3.203 0-5.87-.406-5.87-1h6.6c.663-.983 1.218-2.039 1.676-3-2.859 0-4.776-.646-4.776-1h5.254c.866-2.134 1.254-4.172 1.246-6z" opacity=".1"/>
  <g>
    <path d="M40.03 7.531A22.922 22.922 0 0 1 45.999 23c0 12.703-10.297 23-23 23A22.92 22.92 0 0 1 7.53 40.031C11.708 44.322 17.54 47 23.999 47c12.703 0 23-10.298 23-23 0-6.462-2.677-12.291-6.969-16.469z" opacity=".1"/>
  </g>
  <path d="M35 11c-6.416 0-14.774 9.162-19.218 18.57-1.284 2.718-2.37 5.657-2.782 7.43l.5-.021c1.864-5.376 4.01-5.811 5.03-5.98 3.646-.606 6.44-1.779 9.134-4.998-3.667 0-5.967-.614-5.967-1h6.602a34.944 34.944 0 0 0 2.567-3c-3.203 0-5.87-.406-5.87-1h6.6c.663-.983 1.218-2.039 1.676-3-2.859 0-4.776-.646-4.776-1h5.254c.866-2.134 1.254-4.172 1.246-6z" fill="#ecb234"/>
</svg>
